X:1
T:E la don, don
T:E la don, don
T:Anónimo catalán (s.XVI)
C:Anónimo catalán (s.XVI)
%%score [ 1 2 3 4 ]
L:1/8
Q:1/4=480
M:3/2
K:F
V:1 treble nm="Soprano" snm="S"
V:2 treble nm="Alto" snm="A"
V:3 treble-8 nm="Tenor" snm="T"
V:4 bass nm="Bass" snm="B"
V:1
 z12 | z12 | z12 | z12 | z12 | z12 | z12 | z12 | z12 | z12 | z12 | z12 | z12 | z12 | z8 G4 || %15
w: ||||||||||||||E|
S F4 G8 | A8 A4 | G8 F4 | E4 D4 d4 | d4 c8 | d12 |: z12 | z8 d4 | d4 c4 d4 | A4 A4 B4 | c4 A8 |1 %26
w: la don|don Ver-|ges Ma-|ri- a, E|la don|don,||peu|cap de san-|que que nos|dan- sa-|
 G12 :|1 G12!fine! || z12 | z12 | z12 | z12 | z12 | z12 | z12 | z12 | z12 | z12 | z12 | z12 | z12 | %41
w: ron.|ron.||||||||||||||
 z12 | z12 | z8 G4!D.S.! |] %44
w: ||E-|
V:2
 z12 | z12 | z12 | z12 | z12 | z12 | z12 | z12 | z12 | z12 | z12 | z12 | z12 | z12 | z8 D4 || %15
w: ||||||||||||||E|
 D4 D8 | F8 F4 | D8 A4 | A4 A4 A4 | A4 A8 | F8 d4 |: d4 c4 d4 | A6 G2 F4 | E8 D4 | C4 F4 G4 | %25
w: la don|don Ver-|ges Ma-|ri- a, E|la don|don, peu|cap de san-|que que nos|dan- sa-|ron, que nos|
 G8 ^F4 |1 G8 d4 :|1 G12 || z12 | z12 | z12 | z12 | z12 | z12 | z12 | z12 | z12 | z12 | z12 | z12 | %40
w: dan- sa-|ron peu-|ron.|||||||||||||
 z12 | z12 | z12 | z8 D4 |] %44
w: |||E-|
V:3
 z12 | z12 | z12 | z12 | z12 | z12 | z12 | z12 | z12 | z12 | z12 | z12 | z12 | z12 | z8 B4 || %15
w: ||||||||||||||E|
 A4 B8 | c8 d4 | B8 A4 | c4 d4 f4 | d4 e8 | d12 |: z4 z4 d4 | d4 c4 d4 | A4 A4 B4 | F4 A4 G4 | %25
w: la don|don Ver-|ges Ma-|ri- a, E|la don|don,|peu|cap de san-|que que san-|que que nos|
 E4 D8 |1 G12 :|1 G12 || z12 | z12 | z12 | z12 | z12 | z12 | z12 | z12 | z12 | z12 | z12 | z12 | %40
w: dan- sa-|ron,|ron.|||||||||||||
 z12 | z12 | z12 | z8 B4 |] %44
w: |||E-|
V:4
 z8 G,4 | F,4 G,8 | A,8 A,4 | G,8 F,4 | E,4 D,4 D4 | D4 C8 | D8 D4 | D4 C4 D4 | A,4 A,4 B,4 | %9
w: E|la don|don Ver-|ges Ma-|ri- a, E|la don|don, peu|cap de san-|que que nos|
 C4 A,8 | G,8 D4 | D4 C4 D4 | A,4 A,4 B,4 | C4 A,8 | G,8 G,4 || D,4 G,8 | F,8 D,4 | G,8 D,4 | %18
w: dan- sa-|ron, peu|cap de san-|que que nos|dan- sa-|ron, E|la don|don Ver-|ges Ma-|
 A,4 D,4 D,4 | D,4 A,8 | D,12 |: z12 | z8 A,4 | A,4 A,4 F,4 | F,4 C,4 D,4 | C,4 D,8 |1 G,12 :|1 %27
w: ri- a, E|la don|don,||peu|cap de san-|que que nos|dan- sa-|ron,|
 G,12 || G,4 D8 | D8 B,4 | C4 A,8 | G,8 z4 | G,4 D8 | D8 B,4 | C4 A,8 | G,12 | F,4 G,8 | A,8 A,4 | %38
w: ron.|O gar-|çons a-|ques- ta|nit|u- na|ver- ges|na pa-|rit|un fil-|lo qu'es|
 F,4 G,8 | A,8 z4 | C8 C4 | D8 B,4 | C4 A,8 | G,8 G,4 |] %44
w: tro- po-|lit|que non|aut au|en lo|mon. E-|

